tools/download-figma-icons/icons/outlined-medium/cash-in.svg

<svg width="24" height="24" viewBox="0 0 24 24" fill="none" xmlns="http://www.w3.org/2000/svg">
<path fill-rule="evenodd" clip-rule="evenodd" d="M1.5125 4.90001C1.5125 3.14608 5.05924 1.4 9.47509 1.4C13.8909 1.4 17.4376 3.14606 17.4376 4.90001H18.5751C18.5751 2.02227 14.4674 0 9.47509 0C4.48278 0 0.375 2.02228 0.375 4.90001H1.5125ZM9.47501 8.40011C13.8909 8.40011 17.4376 6.65403 17.4376 4.9001H18.5751L18.5751 4.90022V9.34799L18.5751 9.35449V10.4337C18.1608 10.3617 17.7347 10.3242 17.2998 10.3242C17.2026 10.3242 17.106 10.3261 17.0097 10.3298C17.286 10.0119 17.4364 9.68119 17.4376 9.35207V9.09998L17.4376 7.34353C15.8796 8.85748 12.8834 9.80011 9.47501 9.80011C6.06663 9.80011 3.07059 8.85749 1.51256 7.34357V9.34799C1.51256 10.954 5.06599 12.6002 9.47502 12.6002C10.4223 12.6002 11.3301 12.5243 12.1716 12.389C11.6935 12.8486 11.2771 13.3718 10.9359 13.945C10.4599 13.9815 9.9719 14.0002 9.47502 14.0002C6.063 14.0002 3.06942 13.1152 1.51255 11.6782V13.2999V13.5478C1.51255 15.1538 5.06599 16.8 9.47501 16.8C9.63694 16.8 9.79771 16.7978 9.95719 16.7934C9.91888 17.0985 9.89914 17.4094 9.89914 17.7248C9.89914 17.8828 9.90409 18.0396 9.91384 18.1951C9.7684 18.1984 9.62209 18.2 9.47501 18.2C6.063 18.2 3.06943 17.315 1.51255 15.8779V17.7477C1.51255 19.3537 5.06599 21 9.47501 21C9.87173 21 10.2615 20.9866 10.6424 20.9612C10.8739 21.4365 11.1548 21.8833 11.4784 22.2949C10.8331 22.364 10.1626 22.4 9.47501 22.4C4.47591 22.4 0.37505 20.5001 0.37505 17.7477V13.5478V13.2999V9.09998H0.375057V4.90689L0.37505 4.9001H1.51255V4.90022H1.51256V4.90456C1.51856 6.65701 5.06292 8.40011 9.47501 8.40011Z" fill="black"/>
<path fill-rule="evenodd" clip-rule="evenodd" d="M17.2996 22.7854C20.0946 22.7854 22.3604 20.5196 22.3604 17.7246C22.3604 14.9296 20.0946 12.6638 17.2996 12.6638C14.5046 12.6638 12.2388 14.9296 12.2388 17.7246C12.2388 20.5196 14.5046 22.7854 17.2996 22.7854ZM17.2996 24C20.7654 24 23.575 21.1904 23.575 17.7246C23.575 14.2588 20.7654 11.4492 17.2996 11.4492C13.8338 11.4492 11.0242 14.2588 11.0242 17.7246C11.0242 21.1904 13.8338 24 17.2996 24Z" fill="black"/>
<path fill-rule="evenodd" clip-rule="evenodd" d="M14.4473 17.9325C14.4473 17.9331 14.4473 17.9337 14.4473 17.9345C14.4473 17.9348 14.447 17.9351 14.447 17.9354C14.4473 17.9897 14.458 18.0415 14.4753 18.0896C14.4761 18.0918 14.4766 18.0938 14.4774 18.0961C14.4977 18.1493 14.5278 18.1971 14.5652 18.2367L16.6414 20.4515C16.7977 20.6182 17.0508 20.6182 17.2071 20.4515C17.3634 20.2851 17.3634 20.0148 17.2071 19.8481L15.8096 18.3573L20.5139 18.3414C20.7347 18.3405 20.9134 18.1487 20.9126 17.9132C20.9121 17.6776 20.7328 17.4878 20.5125 17.4878H20.5112L15.816 17.5038L17.2439 15.9806C17.4002 15.8138 17.4002 15.5439 17.2439 15.3771C17.1657 15.2938 17.0636 15.252 16.9612 15.252C16.8588 15.252 16.7564 15.2938 16.6782 15.3771L14.5641 17.6321L14.5638 17.6327C14.527 17.6722 14.4974 17.7194 14.4772 17.7721C14.4764 17.7738 14.4761 17.7758 14.4756 17.7778C14.4577 17.8258 14.4476 17.8779 14.4473 17.9325Z" fill="black"/>
</svg>

<svg xmlns="http://www.w3.org/2000/svg" width="24" height="24" fill="none" viewBox="0 0 24 24"><path fill="currentColor" fill-rule="evenodd" d="M1.513 4.9c0-1.754 3.546-3.5 7.962-3.5s7.963 1.746 7.963 3.5h1.137c0-2.878-4.108-4.9-9.1-4.9s-9.1 2.022-9.1 4.9zm7.962 3.5c4.416 0 7.963-1.746 7.963-3.5h1.137v5.534a7.4 7.4 0 0 0-1.565-.104c.276-.318.426-.649.428-.978V7.344C15.88 8.857 12.883 9.8 9.475 9.8s-6.404-.943-7.962-2.456v2.004c0 1.606 3.553 3.252 7.962 3.252a17 17 0 0 0 2.697-.211c-.479.46-.895.983-1.236 1.556Q10.22 14 9.475 14c-3.412 0-6.406-.885-7.962-2.322v1.87c0 1.606 3.553 3.252 7.962 3.252q.243 0 .482-.007a7.5 7.5 0 0 0-.043 1.402q-.219.005-.439.005c-3.412 0-6.406-.885-7.962-2.322v1.87C1.513 19.354 5.066 21 9.475 21q.596 0 1.167-.039.35.715.836 1.334-.97.104-2.003.105c-5 0-9.1-1.9-9.1-4.652V4.9h1.138v.005C1.519 6.657 5.063 8.4 9.475 8.4" clip-rule="evenodd"/><path fill="currentColor" fill-rule="evenodd" d="M17.3 22.785a5.06 5.06 0 1 0 0-10.121 5.06 5.06 0 0 0 0 10.121m0 1.215a6.275 6.275 0 1 0 0-12.55 6.275 6.275 0 0 0 0 12.55" clip-rule="evenodd"/><path fill="currentColor" fill-rule="evenodd" d="M14.447 17.933v.002q.001.083.028.155l.002.006q.03.08.088.14l2.076 2.215c.157.167.41.167.566 0a.447.447 0 0 0 0-.603l-1.397-1.49 4.704-.017c.22 0 .4-.192.399-.428 0-.235-.18-.425-.4-.425h-.002l-4.695.016 1.428-1.523a.447.447 0 0 0 0-.604.4.4 0 0 0-.283-.125.4.4 0 0 0-.283.125l-2.114 2.255a.4.4 0 0 0-.087.14l-.001.006a.5.5 0 0 0-.029.155" clip-rule="evenodd"/></svg>
